src/main/resources/icons/JavaScriptLanguageIcons/icons/buildTools/grunt/grunt_toolwindow.svg

<svg xmlns="http://www.w3.org/2000/svg" width="13" height="13" viewBox="0 0 13 13">
  <path fill="#6E6E6E" d="M5.61300754,11.311076 C5.47312155,11.4671155 5.20572807,11.4555432 5.02113735,11.317636 C4.96049865,11.2666698 4.75526156,11.0829877 4.66508188,10.8584311 C4.60146094,10.6782259 4.69749807,10.5912871 4.93406677,10.5864408 L5.69852298,10.5864408 C5.94256473,10.5938206 5.99458334,10.6867597 5.9514413,10.8220987 C5.92345467,10.8892124 5.80839745,11.1077139 5.61300754,11.311076 Z M3.31860128,4.48910686 C3.19784319,4.4447007 3.08123123,4.40836793 2.96824708,4.38414583 C4.0664732,4.12527548 4.87601925,4.90491487 5.12841965,5.18800732 C5.56118,5.67294805 6.05095025,5.40953596 6.05095025,5.40953596 C6.05872438,5.69010493 5.7830014,5.89094389 5.50209645,5.90305494 C5.53267446,6.29413638 5.14137653,6.7255867 5.14137653,6.7255867 C5.14137653,6.7255867 5.28597553,6.34611185 5.21030708,6.08673665 C5.1875032,6.00751112 5.15951657,5.93434112 5.1336024,5.87277732 C4.63294853,6.30927423 3.88714987,5.91112872 3.70834466,5.71836353 C3.45905415,5.44990485 3.38805034,5.11534139 3.37664821,4.85495687 C3.32948531,4.95083481 3.2890597,5.08506415 3.2719567,5.27379245 C3.2719567,5.27379245 3.10616149,5.04287656 3.13616846,4.78910414 C3.15096918,4.66393204 3.21235493,4.53452272 3.31860128,4.48910686 Z M8.04372035,11.3181408 C7.87406741,11.4628991 7.6099416,11.4502515 7.45184937,11.31158 C7.25697837,11.1087228 7.14140304,10.8897173 7.11341561,10.8226028 C7.06251925,10.6705674 7.14609978,10.5915271 7.36685244,10.5869456 L8.13130826,10.5869456 C8.45762157,10.5996974 8.44160157,10.7556713 8.39977563,10.858936 C8.30959634,11.0839959 8.10435905,11.2671739 8.04372035,11.3181408 Z M9.74729166,4.48910647 C9.85353772,4.53452234 10.1744903,4.66370547 10.1890015,4.78885133 C10.2185441,5.04267586 9.79341873,5.2732876 9.79341873,5.2732876 C9.77631572,5.0845593 9.73588992,4.95032996 9.68872662,4.85445202 C9.67784339,5.11483654 9.60632186,5.44990485 9.35703116,5.71836314 C9.17822575,5.91112834 8.43242689,6.30927384 7.93177302,5.87277693 C7.90585846,5.93434073 7.87839034,6.00751073 7.85506794,6.08673626 C7.7793995,6.34611069 7.9239981,6.72558593 7.9239981,6.72558593 C7.9239981,6.72558593 7.53347715,6.29413522 7.56353744,5.90305456 C7.28263209,5.89144836 7.00716836,5.69010454 7.0149421,5.40953519 C7.0149421,5.40953519 7.50471314,5.67244281 7.9374727,5.18800655 C8.19039181,4.9049141 8.99993806,4.12477024 10.0976465,4.38414544 C9.98466211,4.40836677 9.86804975,4.44469954 9.74729166,4.48910647 Z M4.12037439,11.3943395 C4.65398141,13.3324158 8.12077942,13.6771774 8.94552033,11.3943395 C11.5827778,11.2308932 11.6098745,8.94972816 10.6182544,8.02599513 C10.5560613,8.47813513 10.2795606,8.8828414 9.97947856,9.13313312 C9.89966478,8.55837037 9.8830795,7.72877376 9.8830795,7.55467923 C9.80275038,6.59611216 11.3943228,6.77598084 11.4658927,5.67294805 C11.4517494,5.12315464 11.0875255,5.04354429 10.8963083,4.81761517 C10.7833239,4.56984656 10.804055,3.95118133 10.852773,3.86590066 C11.4549191,3.0775713 11.2081131,2.37774006 10.2847425,2.33134827 C10.203569,1.94772324 10.1992394,1.72849905 10.4417157,1.53456986 C10.6790584,1.34474588 10.9666794,1.25275334 11.3663834,1.18787741 C10.3213778,-0.00555192693 8.7951396,0.50603125 8.04475619,1.59762969 C7.96338727,1.57290332 7.87994429,1.55019539 7.79598439,1.53001056 C7.68714696,1.13035088 8.02868981,0.556596857 8.02868981,0.556596857 C8.02868981,0.556596857 7.67678026,0.480399091 7.15435874,0.942127188 C7.08646442,0.77762075 6.9444568,0.423377029 7.10875058,0 C6.34325774,0.263412138 6.1499407,0.665090263 6.09241229,1.02942664 C5.89546724,0.892169824 5.91723488,0.446084766 5.90635126,0.331535982 C5.71044284,0.354243961 5.14863215,0.885105174 5.1740278,1.55372771 C5.12271838,1.56735245 5.07192747,1.58148176 5.02165468,1.59712513 C3.86436482,0.0531967965 2.25795033,0.357522245 1.70002663,1.18636362 C2.84316748,1.39645474 2.91859163,1.7538478 2.78115004,2.33033895 C1.78554792,2.38618901 1.66370285,3.1411381 2.21312012,3.86489135 C2.21312012,3.86489135 2.32654568,4.42879167 2.16289083,4.82714947 C2.1282514,4.91146675 1.60000002,5.09177043 1.60000002,5.67193873 C1.61946562,6.75770812 3.18689149,6.52977966 3.18281384,7.55367029 C3.18281384,7.72776405 3.16622925,8.55736143 3.08641468,9.13212419 C2.78633336,8.88183247 2.50957394,8.47763105 2.447381,8.02549027 C1.39573498,8.99231947 1.60633666,11.2358414 4.12037439,11.3943395 Z"/>
</svg>

<svg xmlns="http://www.w3.org/2000/svg" width="13" height="13" viewBox="0 0 13 13"><rect id="frame" width="13" height="13" fill="none"/><path fill="#6E6E6E" d="M5.613 11.311c-.14.156-.407.145-.592.007-.06-.051-.266-.235-.356-.46-.064-.18.032-.267.27-.272h.764c.244.008.296.1.252.236a1.84 1.84 0 0 1-.338.49zM3.319 4.49a2.608 2.608 0 0 0-.35-.105c1.097-.259 1.907.52 2.16.804.432.485.922.222.922.222.008.28-.268.48-.549.493.03.391-.36.823-.36.823s.144-.38.068-.64a1.934 1.934 0 0 0-.076-.213c-.501.436-1.247.038-1.426-.155-.249-.268-.32-.603-.331-.863-.048.096-.088.23-.105.419 0 0-.166-.231-.136-.485.015-.125.076-.254.183-.3zm4.725 6.83a.465.465 0 0 1-.592-.007 1.845 1.845 0 0 1-.339-.49c-.05-.151.033-.23.254-.235h.764c.327.013.31.169.269.272-.09.225-.296.408-.356.46zm1.703-6.83c.107.046.427.175.442.3.03.254-.396.484-.396.484a1.187 1.187 0 0 0-.104-.419c-.011.26-.083.596-.332.864-.179.193-.925.591-1.425.155a2.046 2.046 0 0 0-.077.214c-.076.26.069.639.069.639s-.39-.432-.36-.823c-.281-.012-.557-.213-.55-.493 0 0 .49.262.923-.222.253-.283 1.063-1.063 2.16-.804-.112.024-.229.06-.35.105zM4.12 11.394c.534 1.938 4 2.283 4.826 0 2.637-.163 2.664-2.444 1.672-3.368-.062.452-.338.857-.639 1.107a14.545 14.545 0 0 1-.096-1.578c-.08-.959 1.511-.779 1.583-1.882-.014-.55-.378-.63-.57-.855-.113-.248-.092-.867-.043-.952.602-.788.355-1.488-.568-1.535-.081-.383-.086-.603.157-.796.237-.19.525-.282.924-.347-1.045-1.194-2.57-.682-3.321.41a4.377 4.377 0 0 0-.249-.068c-.109-.4.233-.973.233-.973S7.677.48 7.154.942C7.086.778 6.944.423 7.11 0c-.766.263-.96.665-1.017 1.03-.197-.138-.175-.584-.186-.698-.196.022-.757.553-.732 1.222a3.76 3.76 0 0 0-.152.043C3.864.053 2.258.357 1.7 1.187c1.143.21 1.219.567 1.081 1.143-.995.056-1.117.811-.568 1.535 0 0 .114.564-.05.962-.035.084-.563.265-.563.845.02 1.086 1.587.858 1.583 1.882 0 .174-.017 1.003-.097 1.578-.3-.25-.576-.654-.639-1.107-1.051.967-.84 3.21 1.673 3.37z"/></svg>
